svg/comment_text_multiple.svg

<svg xmlns="http://www.w3.org/2000/svg" viewBox="0 0 24 24"><path d="M3 15H1V3a2 2 0 0 1 2-2h16v2H3zm9 8a1 1 0 0 1-1-1v-3H7a2 2 0 0 1-2-2V7a2 2 0 0 1 2-2h14a2 2 0 0 1 2 2v10a2 2 0 0 1-2 2h-4.1l-3.7 3.71c-.2.18-.44.29-.7.29zM9 9v2h10V9zm0 4v2h8v-2z"/></svg>

<?xml version="1.0" encoding="UTF-8"?><!DOCTYPE svg PUBLIC "-//W3C//DTD SVG 1.1//EN" "http://www.w3.org/Graphics/SVG/1.1/DTD/svg11.dtd"><svg xmlns="http://www.w3.org/2000/svg" xmlns:xlink="http://www.w3.org/1999/xlink" version="1.1" id="mdi-comment-text-multiple" width="24" height="24" viewBox="0 0 24 24"><path d="M3,15H1V3A2,2 0 0,1 3,1H19V3H3V15M12,23A1,1 0 0,1 11,22V19H7A2,2 0 0,1 5,17V7A2,2 0 0,1 7,5H21A2,2 0 0,1 23,7V17A2,2 0 0,1 21,19H16.9L13.2,22.71C13,22.89 12.76,23 12.5,23H12M9,9V11H19V9H9M9,13V15H17V13H9Z" /></svg>
